!!!COM: Bach, Johann Sebastian
!!!CDT: 1685/02/21/-1750/07/28/
!!!OTL@@DE:	Christus, der ist mein Leben
!!!SCT: BWV 281
!!!PC#:	6
!!!AGN: chorale
**harm	**kern	**kern	**kern	**kern
*	*ICvox	*ICvox	*ICvox	*ICvox
*	*Ibass	*Itenor	*Ialto	*Isoprn
*	*I"Bass	*I"Tenor	*I"Alto	*I"Soprano
*	*	*oclefC4	*oclefC3	*oclefC1
*	*clefF4	*clefGv2	*clefG2	*clefG2
*k[b-]	*k[b-]	*k[b-]	*k[b-]	*k[b-]
*F:	*F:	*F:	*F:	*F:
*M4/4	*M4/4	*M4/4	*M4/4	*M4/4
*met(c)	*met(c)	*met(c)	*met(c)	*met(c)
*MM100	*MM100	*MM100	*MM100	*MM100
I	4FF	4A	4c	4f
=1	=1	=1	=1	=1
I	4F	4c	4f	4a
V6	4E	4c	4g	4g
V2/IV	4E-	4c	4f	4a
IV6	4D	4d	4f	4b-
=2	=2	=2	=2	=2
V	4C	4G	4e	4cc
V6	4E	4c	4g	4cc
I;	4F;	4c;	4f;	4a;
IV	4BB-	4B-	4f	4dd
=3	=3	=3	=3	=3
I6	4AA	4c	4f	4cc
ii7	8GGL	8dL	8fL	8b-L
viio6	8GGJ	8B-J	8eJ	8b-J
I	4FF	4c	4f	4a
V	4C	4c	4e	4g
=4	=4	=4	=4	=4
I;	2FF;	2c;	2f;	2a;
.	4r	4r	4r	4r
C:IV6	4A	4f	4a	4cc
=5	=5	=5	=5	=5
V65	4BB	4f	4g	4dd
I	8CL	8eL	8gL	8eeL
V7/IV	8CJ	8eJ	8b-J	8eeJ
ii	8DL	8dL	8aL	8ffL
ii6	8FJ	8dJ	8aJ	8ffJ
vi	4A	4c	4a	4ee
=6	=6	=6	=6	=6
ii65	4F	4c	4a	4dd
V	4G	4B	4g	4dd
I;	4C;	4e;	4g;	4cc;
F:I	4FF	4c	4f	4a
=7	=7	=7	=7	=7
viio6	4GG	4B-	4e	4b-
I6	4AA	4c	4f	4a
ii%65	4BB-	4d-	4f	4g
V7	4C	4B-	4e	4g
=8	=8	=8	=8	=8
I;	2.FF;	2.A;	2.c;	2.f;
==	==	==	==	==
*-	*-	*-	*-	*-
!!!YOR1: 371 vierstimmige Choralges&auml;nge von Johann Sebastian Bach, 
!!!YOR2: 4th ed. by Alfred D&ouml;rffel (Leipzig: Breitkopf und H&auml;rtel, 
!!!YOR2: c.1875). 178 pp. Plate "V.A.10".  reprint: J.S. Bach, 371 Four-Part 
!!!YOR4: Chorales (New York: Associated Music Publishers, Inc., c.1940).
!!!SMS: B&H, 4th ed, Alfred D&ouml;rffel, c.1875, plate V.A.10
!!!EED:  Craig Stuart Sapp
!!!EEV:  2009/05/22
